X:1
T:Joey and David
C: David Kimdon
M:2/2
L:1/8
K:G
"Em"eB2e "Bm"fB2f|"Em"g2ge "Bm"fB-B2|[1"Em"eB2e "Bm"fB2f|
"Em"gfed e4:|][2"Em"eB2e "D"fdfa|"C"gfe^d "B7"efga||
|:"Am"c'4zc'd'c'|"Em"b4 zbc'b|[1"B7"a2-ag2-ga2|"Em"b8:|[2"B7"a2-ag2-gf2|"Em"e8||
|:"C"c2cd-d2c2|"G"B4 zB cB|"D"AG FG AB cd|"Em"B8|
"Am"cc2c e2 d2|"G"B6 A2|"D"FD FA df gf|"Em"e8:|
